X:0405
T:Allemanda.
M:2/4
L:1/8
Q:1/4=104
I: :: :: :: ::
Z:Jack Campin * www.campin.me.uk * 2009
K:D
 ddfd   | eege   |ddfd          | e/d/c/B/  A2 |\
 ddfd   | eege   |fd (c/d/e/).c/| d2        D2::
 ffaf   | affd   |eege          | geec         |\
 ffaf   | affd   |Ad (c/d/e/).c/| d2        D2::
.d.d.c.c|.B.B.A.A|Bdce          |(d/c/d/e/) dD |\
.d.d.c.c|.B.B.A.A|Bdce          | d2        d2::
 a2fa   | g2eg   |fdcd          |(e/d/c/B/) A2 |\
 a2fa   | g2eg   |fd (c/d/e/).c/| d2        D2:|

